!!!OTL: Tinguan
!!!ONR: No. 17
!! From Jaap Kunst "Music in New Guinea; Three Studies"
!! Verhandelingen van het Koninkluijk Instituut voor Taal-,
!! Land- end Volkenkunde, Deel 53
!! English translation and correction by Jeune Scott-Kemball
!! Publication Place: 'S-Gravenhage
!! Publisher: Martinus Nijhoff, 1967
!! From Chapter II: Songs of New Guinea, page 95
!!PLACE: Pacifica, New Guinea, Humboldt Bay, Sarmi (village)
!!SINGER: Imona
!!!PSX: M
!!!ENCODER: D. Huron
**kern	**dynamics
*clefF4	*
*K[C#3]	*
*MX	*
=1-	=1-
(2A	p
16G	.
16A	.
4.G#y)	.
8E	.
=2	=2
[2C	.
8C]	.
24E	.
24E	.
24E	.
=3	=3
4A	.
8.G	.
16#	.
=4	=4
2C	.
=5	=5
2A	.
4c#	mf
12c#	.
12A	.
12c#	.
=6	=6
8.A	.
16G	.
4.E	.
8C	.
=7	=7
1E	.
=8	=8
(2A	.
16G	.
16A	.
4.G)	.
8e	.
=9	=9
[2C#	.
8C#}	.
24E	.
24E	.
24E	.
=10	=10
4A	.
8.G	.
16E	.
=11	=11
2C#	.
=12	=12
4A	.
(16G	.
16A	.
8G)	.
[8E	.
4E]	.
4r	.
=13	=13
4A	.
8G	.
8E	.
4C#	.
8E	.
[8C#	.
=14	=14
1C#]	.
=15	=15
2.C#	p
=16	=16
2G	.
8A	.
16G	.
16E	.
4C#	f
8f	.
16c	.
16f	.
=17	=17
4.c	.
16A	.
16c	.
4.A	.
8c	.
=18	=18
4.c	.
16A	.
16c	.
4A	.
8G	.
8E	.
=19	=19
4.C#	.
8C#	.
8C#	.
8C#	.
4r	.
=20	=20
4r	.
4A	.
=21	=21
G	.
8E	.
16A	.
16A	.
=22	=22
4.G	.
8E	.
4C#	.
4A	.
=23	=23
2.G	.
12A	.
12A	.
12A	.
=24	=24
2.G;	.
8r	.
=||	=||
*K[C3nF#4	*
8B	.
=25	=25
2.d	.
8e	.
8d	.
=26	=26
4.c	.
8c	.
8c	.
8c	.
8A	.
24c	.
24c	.
24A	.
=27	=27
[2.G	.
8G]	.
24A	.
24A	.
24A	.
=28	=28
8G	.
8G	.
8G	.
24G	.
24G	.
24G	.
8G	.
8G	.
4r	.
=29	=29
8r	.
8d	.
8e	.
8d	.
=30	=30
8c	.
8c	.
8A	.
8G	.
12B	.
12B	.
12A	.
8.G	.
16E	.
=31	=31
[2.D	.
16D]	.
16E	.
16E	.
16D	.
=32	=32
8D	.
8D	.
16D	.
16D	.
16D	.
16D	.
8D	.
8D	.
4r	.
=33	=33
8r	.
8A	.
8B	.
8B	.
8A	.
8A	.
=34	=34
8G	.
8G	.
8E	.
8D	.
12G	.
12G	.
12E	.
8..D	.
32B	.
=35	=35
[2.A	.
16A]	.
16B	.
16B	.
16A	.
=36	=36
8A	.
8A	.
12A	.
12A	.
12A	.
8A	.
8A	.
4r	.
=37	=37
8r	.
8d	.
8e	.
8f#	.
=38	=38
8e	.
8d	.
8d	.
8d	.
8B	.
8A	.
8A	.
8G	.
8E	.
16G	.
[8G	.
32G]	.
32E	.
=39	=39
2.D	.
4r;	.
=40	=40
1.r;	.
!! page 96 (continuing)
=41	=41
[2.A	mf
16.A]	.
32A	.
24A	.
24A	.
24A	.
=42	=42
[2A	.
8A]	.
16B	.
16A	.
=43	=43
8G	.
24G	.
24G	.
24G	.
8G	.
4G	.
16A	.
16G	.
=44	=44
[2G	.
8G]	.
24G	.
24G	.
24G	.
8G	.
4r	.
8G	.
=45	=45
4G	.
16A	.
16G	.
16A	.
16B	.
16A	.
8G	.
16E	.
=46	=46
(Q16E	.
Q16F#	.
Q16E)	.
2.D;	.
4r	.
=47	=47
8r	.
16D	.
16E	.
16D	.
16E	.
16D	.
16BB	.
=48	=48
2A	.
4A	.
4r	.
=49	=49
2r	.
2A	.
=50	=50
2.d	.
16d	.
16d	.
16e	.
16d	.
=51	=51
4.B	.
8A	.
4F#	.
4r	.
=52	=52
4.A	.
16B	.
16c	.
16d	.
16A	.
4F#	.
[8D	.
=53	=53
4D]	.
4D	.
2r	.
=54	=54
2A	.
16B	.
16A	.
24B	.
24B	.
24A	.
16B	.
16A	.
24F#	.
24F#	.
24F#	.
16F#	.
16F#	.
8A	.
4F#	.
8D	.
=55	=55
16d	<
[16B	|
8B]	|
16d	|
16B	|
[8d	|
8d]	]
16f#	.
16d	.
16f#	>
8d	|
16B	|
=56	=56
2.A	e
2r	.
4r	.
=57	=57
16d	.
16B	.
[8d	.
8d]	.
24e	.
24d	.
24e	.
12d	.
12d	.
12d	.
=58	=58
16e	.
16d	.
[8B	.
4B]	.
12e	.
12d	.
12B	.
=59	=59
8A	.
8F#	.
8r	.
8B	.
=60	=60
[4A	.
12A	.
12B	.
12c	.
12d	.
12B	.
12A	.
8.F#	.
[16D	.
=61	=61
2D]	.
2r	.
=62	=62
2A	.
12B	.
12A	.
12B	.
4A	.
4r	.
=63	=63
2d	.
48e	.
48e	.
48f#	.
32e	.
32e	.
32e	.
32d	.
16e	.
[8.e	.
16e]	.
16d	.
16B	.
16A	.
=64	=64
4.G	.
8G	.
4.G	.
=65	=65
4.A	.
8B	.
8c	.
8A	.
=66	=66
8.G	.
16E	.
[4D	.
8D]	.
16F#	.
16E	.
16F#	.
16E	.
8D	.
4r	.
=67	=67
2A	.
16c	.
16B	.
16c	.
16B	.
28A	.
28A	.
28B	.
28c	.
28c	.
28B	.
28A	.
=68	=68
[4G	.
16G]	.
16A	.
16G	.
16E	.
8.d	.
=69	=69
8.E	.
16F#	.
16G	.
16E	.
[4D	.
=70	=70
2D]	.
==	==
!! etc.
*-	*-
